src/images_karasa_jaga_svg/cmd/32/paralefttoright.svg

<svg height="32" viewBox="0 0 32 32" width="32" xmlns="http://www.w3.org/2000/svg" xmlns:xlink="http://www.w3.org/1999/xlink"><linearGradient id="a" gradientTransform="matrix(2.2222222 0 0 2.3333333 -464.77778 -914.33333)" gradientUnits="userSpaceOnUse" x1="430" x2="430" y1="269" y2="275.0867"><stop offset="0" stop-color="#e0f4b8"/><stop offset="1" stop-color="#92c441" stop-opacity=".214592"/></linearGradient><linearGradient id="b" gradientTransform="matrix(2.2222222 0 0 2.3333333 -464.77778 -914.33333)" gradientUnits="userSpaceOnUse" x1="429.30026" x2="429.30026" y1="273.82983" y2="271.99973"><stop offset="0" stop-color="#bbf10e"/><stop offset="1" stop-color="#5f9207"/></linearGradient><radialGradient id="c" cx="429" cy="272" gradientTransform="matrix(2.8400251 0 0 2.9820263 -729.8152 -1090.7778)" gradientUnits="userSpaceOnUse" r="4"><stop offset="0" stop-color="#033a13"/><stop offset="1" stop-color="#398c37"/></radialGradient><linearGradient id="d"><stop offset="0" stop-color="#fff"/><stop offset="1" stop-color="#fff" stop-opacity="0"/></linearGradient><linearGradient id="e" gradientUnits="userSpaceOnUse" x1="25.515633" x2="82.713898" xlink:href="#d" y1="-93.076469" y2="59.479324"/><linearGradient id="f" gradientUnits="userSpaceOnUse" x1="78.223663" x2="95.309601" y1="119.98714" y2="62.626804"><stop offset="0" stop-color="#5e5e5e"/><stop offset="1" stop-opacity="0"/></linearGradient><linearGradient id="g" gradientUnits="userSpaceOnUse" x1="90.739548" x2="96.131233" xlink:href="#d" y1="12.071719" y2="2.349"/><filter id="h" height="1.317541" width="1.244662" x="-.122331" y="-.15877"><feGaussianBlur stdDeviation=".27482165"/></filter><radialGradient id="i" cx="72.309822" cy="22.770975" gradientTransform="matrix(1.2890806 .00623099 -.00039589 .08190326 -20.745443 3.152109)" gradientUnits="userSpaceOnUse" r="35.712891" xlink:href="#d"/><linearGradient id="j" gradientUnits="userSpaceOnUse" x1="101.04345" x2="64.526085" xlink:href="#d" y1="72.676468" y2="-60.538036"/><linearGradient id="k" gradientUnits="userSpaceOnUse" x1="88.009483" x2="95.687553" xlink:href="#d" y1="145.50327" y2="62.626804"/><filter id="l" color-interpolation-filters="sRGB" height="1.005726" width="1.009696" x="-.004848" y="-.002863"><feGaussianBlur stdDeviation=".12613919"/></filter><g transform="matrix(.25 0 0 .25 7.901149 -.000004)"><path d="m56.22366 5.2664335v.2460938c-15.854861 1.8206395-27.829677 15.2323667-27.849609 31.1914057.01101 15.965751 11.98809 29.387571 27.849609 31.208984v52.074223l11.77634.01286v-88.134769h8v88.134769h12v-101.414066h6.060547c.929595 0 1.677734-.748139 1.677734-1.677735v-9.949218c0-.9295954-.748344-1.6601582-1.677734-1.6796875h-6.060547l-7.77634-.01286h-12.162109z"/><path d="m56.22366 5.2664335v.2460938c-15.854861 1.8206395-27.829677 15.2323667-27.849609 31.1914057.01101 15.965751 11.98809 29.387571 27.849609 31.208984v52.074223l11.77634.01286v-88.134769h8v88.134769h12v-101.414026h6.060547c.929595 0 1.677734-.748139 1.677734-1.677735v-9.949218c0-.9295954-.748439-1.6560616-1.677734-1.6796875h-6.060547l-7.77634-.0129h-12.162109z" fill="url(#i)" opacity=".74"/><path d="m56.960937 10.259728c-.304465.105766-.61943.17845-.939453.216797-13.62291 1.56434-23.135155 12.512168-23.157199 26.223502.000002.002-.000002.0039 0 .0059-.000002.0013.000002.0026 0 .0039.01438 13.717156 9.528514 25.680235 23.157199 27.245247 2.266783.260505 3.978015 2.179234 3.978516 4.460937v47.583989h4v-83.644569c.000583-2.479646 2.010588-4.489651 4.490234-4.490235l7.019531.00003c2.479647.000583 4.489652 2.010588 4.490235 4.490235v83.644539h4.857422v-96.923836c.000583-2.479646 2.010588-4.489651 4.490234-4.490235h3.248047v-4.326171h-3.248047-11.837891l-11.019531-.00003z" fill="url(#f)"/><path d="m58.035685 10.983568c-.304465.105765-.61943.17845-.939453.216797-13.62291 1.56434-24.209903 11.788328-24.231947 25.499662.000002.002-.000002.0039 0 .0059-.000002.0013.000002.0026 0 .0039.01438 13.717156 10.242409 25.177175 23.871094 26.742187 1.290071.150501 2.451821.85211 3.185547 1.923828 1.900925-.23256 2.214792-1.035747 4.079074-1.375842v-32.664096c.000583-2.479646 2.010588-4.489651 4.490234-4.490235l6.542968 1.253939c2.479647.000583 4.489652 2.010588 4.490235 4.490235v27.626953c1.666079-.688476 3.286739-1.424844 4.857422-2.207031v-38.699219c.000583-2.479646 2.010588-4.489651 4.490234-4.490235h3.248047v-4.326171h-3.248047-11.837891l-10.182115-.02704z" fill="url(#e)"/><path d="m96.131238 6.1055056-3.535535 4.1542524-1.85615-.265166z" fill="url(#g)" fill-rule="evenodd" filter="url(#h)"/><path d="m91.7182 10.514243v4.269531h-3.216796c-2.455054.0011-4.120068 2.425621-4.120545 4.882241v38.34375c-1.420579.701656-2.882001 1.365583-4.380859 1.990235v.669922c1.666079-.688476 3.286739-1.424844 4.857422-2.207031v-38.699219c.000583-2.479646 1.68582-4.922674 4.165466-4.923258h3.248047v-4.326171zm-23.270935 16.671304c-2.455816-.00001-4.446788 1.991836-4.447265 4.449218v32.365235c-1.845593.336976-2.40228.617991-4.284152.848464-.726513-1.06191-1.876869-1.757109-3.154297-1.90625-13.495031-1.550653-23.622479-12.90675-23.636719-26.498047.000002-.0013-.000002-.0026 0-.0039-.000002-.0019.000002-.0039 0-.0059.0034-2.113718.251564-4.171611.71875-6.148438-.50421 2.058645-.775747 4.206383-.779297 6.414063.000002.002-.000002.0039 0 .0059-.000002.0013.000002.0026 0 .0039.01438 13.717156 10.242409 25.177175 23.871094 26.742187 1.290071.150501 2.451821.85211 3.185547 1.923828 1.900925-.23256 2.476511-.516182 4.340793-.856277v-32.664061c.000583-2.479646 2.010588-4.489651 4.490234-4.490235l6.757812 1.1875c.563291.0021 1.121169.110051 1.644531.31836-.627305-.324921-1.322935-.495648-2.029296-.498047z" fill="url(#j)"/><path d="m56.960937 10.259728c-.304465.105765-.61943.17845-.939453.216797-13.62291 1.56434-23.135155 12.512168-23.157199 26.223502.000002.002-.000002.0039 0 .0059-.000002.0013.000002.0026 0 .0039.01438 13.717156 9.528514 25.680235 23.157199 27.245247 2.266783.260505 3.978015 2.179234 3.978516 4.460937v47.583989h4v-83.644569c.000583-2.479646 2.010588-4.489651 4.490234-4.490235l7.019531.00003c2.479647.000583 4.489652 2.010588 4.490235 4.490235v83.644539h4.857422v-96.923836c.000583-2.479646 2.010588-4.489651 4.490234-4.490235h3.248047v-4.326171h-3.248047-11.837891l-11.019531-.00003z" style="opacity:.56;fill:none;stroke-width:1.133858;stroke-linecap:round;stroke-linejoin:bevel;stroke:url(#k);filter:url(#l)"/></g><g transform="translate(-472.098851 304.000146)"><path d="m473-282v5h13v4l6.5-6.5-6.5-6.5v4z" fill="none" stroke="url(#c)" stroke-linecap="round" stroke-linejoin="round" stroke-width="2"/><g fill-rule="evenodd"><path d="m473-282v5h13v4l6.5-6.5-6.5-6.5v4z" fill="url(#b)"/><path d="m473-282v2h19l-6-6v4z" fill="url(#a)"/></g></g></svg>

<?xml version="1.0" encoding="UTF-8" standalone="no"?>
<svg
   xmlns:dc="http://purl.org/dc/elements/1.1/"
   xmlns:cc="http://creativecommons.org/ns#"
   xmlns:rdf="http://www.w3.org/1999/02/22-rdf-syntax-ns#"
   xmlns:svg="http://www.w3.org/2000/svg"
   xmlns="http://www.w3.org/2000/svg"
   xmlns:xlink="http://www.w3.org/1999/xlink"
   xmlns:sodipodi="http://sodipodi.sourceforge.net/DTD/sodipodi-0.dtd"
   xmlns:inkscape="http://www.inkscape.org/namespaces/inkscape"
   height="128"
   viewBox="0 0 128 128"
   width="128"
   version="1.1"
   id="svg3255"
   sodipodi:docname="paralefttoright.svg"
   inkscape:version="0.92.3 (unknown)"
   inkscape:export-filename="/home/rizmut/Dokumen/Rizmut/Github/libreoffice-style-karasa-jaga/build/images_karasa_jaga/cmd/32/paralefttoright.png"
   inkscape:export-xdpi="24"
   inkscape:export-ydpi="24">
  <metadata
     id="metadata3261">
    <rdf:RDF>
      <cc:Work
         rdf:about="">
        <dc:format>image/svg+xml</dc:format>
        <dc:type
           rdf:resource="http://purl.org/dc/dcmitype/StillImage" />
        <dc:title></dc:title>
      </cc:Work>
    </rdf:RDF>
  </metadata>
  <defs
     id="defs3259">
    <linearGradient
       inkscape:collect="always"
       xlink:href="#linearGradient4118"
       id="linearGradient4756"
       gradientUnits="userSpaceOnUse"
       gradientTransform="matrix(2.2222222,0,0,2.3333333,-464.77778,-914.33333)"
       x1="430"
       y1="269"
       x2="430"
       y2="275.0867" />
    <linearGradient
       id="linearGradient4118">
      <stop
         id="stop4120"
         offset="0"
         style="stop-color:#e0f4b8;stop-opacity:1" />
      <stop
         id="stop4122"
         offset="1"
         style="stop-color:#92c441;stop-opacity:0.21459228" />
    </linearGradient>
    <linearGradient
       inkscape:collect="always"
       xlink:href="#linearGradient4112"
       id="linearGradient4754"
       gradientUnits="userSpaceOnUse"
       gradientTransform="matrix(2.2222222,0,0,2.3333333,-464.77778,-914.33333)"
       x1="429.30026"
       y1="273.82983"
       x2="429.30026"
       y2="271.99973" />
    <linearGradient
       id="linearGradient4112">
      <stop
         id="stop4114"
         offset="0"
         style="stop-color:#bbf10e;stop-opacity:1" />
      <stop
         id="stop4116"
         offset="1"
         style="stop-color:#5f9207;stop-opacity:1" />
    </linearGradient>
    <radialGradient
       inkscape:collect="always"
       xlink:href="#linearGradient4105"
       id="radialGradient4752"
       gradientUnits="userSpaceOnUse"
       gradientTransform="matrix(2.8400251,0,0,2.9820263,-729.8152,-1090.7778)"
       cx="429"
       cy="272"
       fx="429"
       fy="272"
       r="4" />
    <linearGradient
       id="linearGradient4105">
      <stop
         id="stop4107"
         offset="0"
         style="stop-color:#033a13;stop-opacity:1" />
      <stop
         id="stop4109"
         offset="1"
         style="stop-color:#398c37;stop-opacity:1" />
    </linearGradient>
  </defs>
  <sodipodi:namedview
     pagecolor="#ffffff"
     bordercolor="#666666"
     borderopacity="1"
     objecttolerance="10"
     gridtolerance="10"
     guidetolerance="10"
     inkscape:pageopacity="0"
     inkscape:pageshadow="2"
     inkscape:window-width="1366"
     inkscape:window-height="706"
     id="namedview3257"
     showgrid="true"
     inkscape:zoom="3.6875"
     inkscape:cx="51.672615"
     inkscape:cy="43.315771"
     inkscape:window-x="0"
     inkscape:window-y="0"
     inkscape:window-maximized="1"
     inkscape:current-layer="svg3255">
    <inkscape:grid
       type="xygrid"
       id="grid3806"
       spacingx="4"
       spacingy="4"
       empspacing="2" />
  </sodipodi:namedview>
  <linearGradient
     id="a">
    <stop
       offset="0"
       stop-color="#fff"
       id="stop3220" />
    <stop
       offset="1"
       stop-color="#fff"
       stop-opacity="0"
       id="stop3222" />
  </linearGradient>
  <linearGradient
     id="b"
     gradientUnits="userSpaceOnUse"
     x1="25.515633"
     x2="82.713895"
     xlink:href="#a"
     y1="-93.07647"
     y2="59.479324" />
  <linearGradient
     id="c"
     gradientUnits="userSpaceOnUse"
     x1="78.22366"
     x2="95.309598"
     y1="119.987135"
     y2="62.626804">
    <stop
       offset="0"
       stop-color="#5e5e5e"
       id="stop3226" />
    <stop
       offset="1"
       stop-opacity="0"
       id="stop3228" />
  </linearGradient>
  <linearGradient
     id="d"
     gradientUnits="userSpaceOnUse"
     x1="90.739544"
     x2="96.131237"
     xlink:href="#a"
     y1="12.071719"
     y2="2.349" />
  <filter
     id="e"
     height="1.317541"
     width="1.244662"
     x="-.122331"
     y="-.15877">
    <feGaussianBlur
       stdDeviation=".27482165"
       id="feGaussianBlur3232" />
  </filter>
  <radialGradient
     id="f"
     cx="72.309822"
     cy="22.770975"
     gradientTransform="matrix(1.2890806,0.00623099,-3.9589e-4,0.08190326,-20.745443,3.152109)"
     gradientUnits="userSpaceOnUse"
     r="35.712891"
     xlink:href="#a" />
  <linearGradient
     id="g"
     gradientUnits="userSpaceOnUse"
     x1="101.043449"
     x2="64.526082"
     xlink:href="#a"
     y1="72.676467"
     y2="-60.538037" />
  <linearGradient
     id="h"
     gradientUnits="userSpaceOnUse"
     x1="88.00948"
     x2="95.68755"
     xlink:href="#a"
     y1="145.503265"
     y2="62.626804" />
  <filter
     id="i"
     color-interpolation-filters="sRGB"
     height="1.005726"
     width="1.009696"
     x="-.004848"
     y="-.002863">
    <feGaussianBlur
       stdDeviation=".12613919"
       id="feGaussianBlur3238" />
  </filter>
  <g
     id="g3929"
     transform="translate(32)">
    <path
       id="path3241"
       d="M 56.22366,5.2664335 V 5.5125273 C 40.368799,7.3331668 28.393983,20.744894 28.374051,36.703933 28.385061,52.669684 40.362141,66.091504 56.22366,67.912917 V 119.98714 L 68,120 V 31.865231 h 8 V 120 H 88 V 18.585934 h 6.060547 c 0.929595,0 1.677734,-0.748139 1.677734,-1.677735 V 6.958981 c 0,-0.9295954 -0.748344,-1.6601582 -1.677734,-1.6796875 H 88 l -7.77634,-0.01286 H 68.061551 Z"
       inkscape:connector-curvature="0" />
    <path
       id="path3243"
       d="M 56.22366,5.2664335 V 5.5125273 C 40.368799,7.3331668 28.393983,20.744894 28.374051,36.703933 28.385061,52.669684 40.362141,66.091504 56.22366,67.912917 V 119.98714 L 68,120 V 31.865231 h 8 V 120 H 88 V 18.585974 h 6.060547 c 0.929595,0 1.677734,-0.748139 1.677734,-1.677735 V 6.959021 c 0,-0.9295954 -0.748439,-1.6560616 -1.677734,-1.6796875 H 88 l -7.77634,-0.0129 H 68.061551 Z"
       style="opacity:0.73999999;fill:url(#f)"
       inkscape:connector-curvature="0" />
    <path
       id="path3245"
       d="m 56.960937,10.259728 c -0.304465,0.105766 -0.61943,0.17845 -0.939453,0.216797 -13.62291,1.56434 -23.135155,12.512168 -23.157199,26.223502 2e-6,0.002 -2e-6,0.0039 0,0.0059 -2e-6,0.0013 2e-6,0.0026 0,0.0039 0.01438,13.717156 9.528514,25.680235 23.157199,27.245247 2.266783,0.260505 3.978015,2.179234 3.978516,4.460937 V 116 h 4 V 32.355431 c 5.83e-4,-2.479646 2.010588,-4.489651 4.490234,-4.490235 l 7.019531,3e-5 C 77.989412,27.865809 79.999417,29.875814 80,32.355461 V 116 h 4.857422 V 19.076164 c 5.83e-4,-2.479646 2.010588,-4.489651 4.490234,-4.490235 h 3.248047 V 10.259758 H 89.347656 77.509765 l -11.019531,-3e-5 z"
       style="fill:url(#c)"
       inkscape:connector-curvature="0" />
    <path
       id="path3247"
       d="m 58.035685,10.983568 c -0.304465,0.105765 -0.61943,0.17845 -0.939453,0.216797 -13.62291,1.56434 -24.209903,11.788328 -24.231947,25.499662 2e-6,0.002 -2e-6,0.0039 0,0.0059 -2e-6,0.0013 2e-6,0.0026 0,0.0039 0.01438,13.717156 10.242409,25.177175 23.871094,26.742187 1.290071,0.150501 2.451821,0.85211 3.185547,1.923828 C 61.821851,65.143282 62.135718,64.340095 64,64 V 31.335904 c 5.83e-4,-2.479646 2.010588,-4.489651 4.490234,-4.490235 l 6.542968,1.253939 c 2.479647,5.83e-4 4.489652,2.010588 4.490235,4.490235 v 27.626953 c 1.666079,-0.688476 3.286739,-1.424844 4.857422,-2.207031 V 19.310546 c 5.83e-4,-2.479646 2.010588,-4.489651 4.490234,-4.490235 H 92.11914 V 10.49414 H 88.871093 77.033202 L 66.851087,10.4671 Z"
       style="fill:url(#b)"
       inkscape:connector-curvature="0" />
    <path
       id="path3249"
       d="M 96.131238,6.1055056 92.595703,10.259758 90.739553,9.994592 Z"
       style="fill:url(#d);fill-rule:evenodd;filter:url(#e)"
       inkscape:connector-curvature="0" />
    <path
       id="path3251"
       d="m 91.7182,10.514243 v 4.269531 h -3.216796 c -2.455054,0.0011 -4.120068,2.425621 -4.120545,4.882241 v 38.34375 C 82.96028,58.711421 81.498858,59.375348 80,60 v 0.669922 c 1.666079,-0.688476 3.286739,-1.424844 4.857422,-2.207031 V 19.763672 c 5.83e-4,-2.479646 1.68582,-4.922674 4.165466,-4.923258 h 3.248047 V 10.514243 Z M 68.447265,27.185547 C 65.991449,27.185537 64.000477,29.177383 64,31.634765 V 64 c -1.845593,0.336976 -2.40228,0.617991 -4.284152,0.848464 -0.726513,-1.06191 -1.876869,-1.757109 -3.154297,-1.90625 C 43.06652,61.391561 32.939072,50.035464 32.924832,36.444167 c 2e-6,-0.0013 -2e-6,-0.0026 0,-0.0039 -2e-6,-0.0019 2e-6,-0.0039 0,-0.0059 0.0034,-2.113718 0.251564,-4.171611 0.71875,-6.148438 -0.50421,2.058645 -0.775747,4.206383 -0.779297,6.414063 2e-6,0.002 -2e-6,0.0039 0,0.0059 -2e-6,0.0013 2e-6,0.0026 0,0.0039 0.01438,13.717156 10.242409,25.177175 23.871094,26.742187 1.290071,0.150501 2.451821,0.85211 3.185547,1.923828 1.900925,-0.23256 2.476511,-0.516182 4.340793,-0.856277 V 31.855469 c 5.83e-4,-2.479646 2.010588,-4.489651 4.490234,-4.490235 l 6.757812,1.1875 c 0.563291,0.0021 1.121169,0.110051 1.644531,0.31836 C 76.526991,28.546173 75.831361,28.375446 75.125,28.373047 Z"
       style="fill:url(#g)"
       inkscape:connector-curvature="0" />
    <path
       id="path3253"
       style="opacity:0.56000001;fill:none;stroke:url(#h);stroke-width:1.13385797;stroke-linecap:round;stroke-linejoin:bevel;filter:url(#i)"
       d="m 56.960937,10.259728 c -0.304465,0.105765 -0.61943,0.17845 -0.939453,0.216797 -13.62291,1.56434 -23.135155,12.512168 -23.157199,26.223502 2e-6,0.002 -2e-6,0.0039 0,0.0059 -2e-6,0.0013 2e-6,0.0026 0,0.0039 0.01438,13.717156 9.528514,25.680235 23.157199,27.245247 2.266783,0.260505 3.978015,2.179234 3.978516,4.460937 V 116 h 4 V 32.355431 c 5.83e-4,-2.479646 2.010588,-4.489651 4.490234,-4.490235 l 7.019531,3e-5 C 77.989412,27.865809 79.999417,29.875814 80,32.355461 V 116 h 4.857422 V 19.076164 c 5.83e-4,-2.479646 2.010588,-4.489651 4.490234,-4.490235 h 3.248047 V 10.259758 H 89.347656 77.509765 l -11.019531,-3e-5 z"
       inkscape:connector-curvature="0" />
  </g>
  <g
     id="g3920"
     transform="matrix(4,0,0,4,-1888,1216.0006)">
    <path
       style="display:inline;fill:none;fill-opacity:1;fill-rule:evenodd;stroke:url(#radialGradient4752);stroke-width:2;stroke-linecap:round;stroke-linejoin:round;stroke-miterlimit:4;stroke-dasharray:none;stroke-opacity:1"
       d="m 473,-282 v 5 h 13 v 4 l 6.5,-6.5 -6.5,-6.5 v 4 z"
       id="path4737"
       sodipodi:nodetypes="cccccccc"
       inkscape:connector-curvature="0" />
    <path
       sodipodi:nodetypes="cccccccc"
       id="path4740"
       d="m 473,-282 v 5 h 13 v 4 l 6.5,-6.5 -6.5,-6.5 v 4 z"
       style="display:inline;fill:url(#linearGradient4754);fill-opacity:1;fill-rule:evenodd;stroke:none;stroke-width:1px;stroke-linecap:butt;stroke-linejoin:miter;stroke-opacity:1"
       inkscape:connector-curvature="0" />
    <path
       style="display:inline;fill:url(#linearGradient4756);fill-opacity:1;fill-rule:evenodd;stroke:none;stroke-width:1px;stroke-linecap:butt;stroke-linejoin:miter;stroke-opacity:1"
       d="m 473,-282 v 2 h 19 l -6,-6 v 4 z"
       id="path4744"
       sodipodi:nodetypes="cccccc"
       inkscape:connector-curvature="0" />
  </g>
</svg>
